src/images/single-assets/EURC.svg

<svg width="224" height="224" viewBox="0 0 224 224" fill="none" xmlns="http://www.w3.org/2000/svg">
<g clip-path="url(#clip0_1176_2535)">
<path fill-rule="evenodd" clip-rule="evenodd" d="M111.788 0C173.527 0 223.576 50.0491 223.576 111.788C223.576 173.527 173.527 223.576 111.788 223.576C50.0491 223.576 0 173.527 0 111.788C0 50.0491 50.0491 0 111.788 0Z" fill="#2775CA"/>
<path fill-rule="evenodd" clip-rule="evenodd" d="M137.331 33.0735C134.81 32.2682 132.749 33.7644 132.749 36.411V42.9197C132.749 44.6942 134.086 46.7139 135.752 47.3245C162.509 57.1246 181.656 82.8429 181.656 112.953C181.656 143.063 162.509 168.78 135.752 178.581C133.925 179.25 132.749 181.04 132.749 182.986V189.494C132.749 192.141 134.81 193.637 137.331 192.832C171.144 182.028 195.629 150.35 195.629 112.953C195.629 75.5556 171.144 43.8771 137.331 33.0735Z" fill="white"/>
<path fill-rule="evenodd" clip-rule="evenodd" d="M90.828 36.411C90.828 33.7644 88.7668 32.2682 86.246 33.0735C52.4321 43.8771 27.947 75.5552 27.947 112.953C27.947 150.351 52.4321 182.028 86.246 192.832C88.7667 193.637 90.828 192.141 90.828 189.494V182.986C90.828 181.211 89.4905 179.191 87.8242 178.581C61.0678 168.78 41.9205 143.062 41.9205 112.953C41.9205 82.8433 61.0678 57.1246 87.8242 47.3245C89.4905 46.7139 90.828 44.6942 90.828 42.9196V36.411Z" fill="white"/>
<path d="M140.376 134.769L133.981 131.912C132.573 131.283 130.913 131.871 130.231 133.255C127.213 139.38 122.197 143.284 115.57 143.284C109.571 143.284 104.759 140.346 101.071 134.409C99.6295 132.112 98.4841 129.548 97.6118 126.739H114.784C115.872 126.739 116.868 126.126 117.359 125.154L121.456 119.624C122.425 117.705 121.031 115.439 118.882 115.439H95.6795C95.6122 114.249 95.5717 113.036 95.5717 111.786C95.5589 110.547 95.5937 109.333 95.6583 108.137H114.784C115.872 108.137 116.868 107.525 117.359 106.553L121.456 101.023C122.425 99.104 121.031 96.8376 118.882 96.8376H97.5908C100.705 86.6847 107.206 80.0329 115.57 80.1636C121.944 80.1636 126.892 83.6531 130.066 89.368C130.777 90.649 132.378 91.1399 133.718 90.5482L140.146 87.7106C141.684 87.0316 142.338 85.1718 141.524 83.7009C135.59 72.9848 126.939 67.6021 115.57 67.6021C105.196 67.6021 96.8839 71.7267 90.5718 79.9137C86.8827 84.7355 84.3146 90.3931 82.7906 96.8376H73.4533C72.3648 96.8376 71.369 97.4502 70.8784 98.4218L66.7807 103.952C65.8116 105.871 67.2061 108.137 69.3556 108.137H81.2478C81.1904 109.338 81.1355 110.541 81.1355 111.786C81.1203 113.02 81.1494 114.235 81.2016 115.439H73.4533C72.3648 115.439 71.369 116.052 70.8784 117.023L66.7807 122.553C65.8116 124.472 67.2061 126.739 69.3556 126.739H82.7634C87.0038 144.265 99.2115 156.217 115.57 155.97C127.185 155.97 135.939 150.196 141.783 138.699C142.527 137.235 141.875 135.439 140.376 134.769Z" fill="white"/>
</g>
<defs>
<clipPath id="clip0_1176_2535">
<rect width="223.576" height="223.576" fill="white"/>
</clipPath>
</defs>
</svg>

<svg xmlns="http://www.w3.org/2000/svg" width="224" height="224" fill="none"><g clip-path="url(#a)"><path fill="#2775CA" fill-rule="evenodd" d="M111.788 0c61.739 0 111.788 50.05 111.788 111.788s-50.049 111.788-111.788 111.788S0 173.527 0 111.788 50.05 0 111.788 0" clip-rule="evenodd"/><path fill="#fff" fill-rule="evenodd" d="M137.331 33.074c-2.521-.806-4.582.69-4.582 3.337v6.509c0 1.774 1.337 3.794 3.003 4.404 26.757 9.8 45.904 35.519 45.904 65.629s-19.147 55.827-45.904 65.628c-1.827.669-3.003 2.459-3.003 4.405v6.508c0 2.647 2.061 4.143 4.582 3.338 33.813-10.804 58.298-42.482 58.298-79.879s-24.485-69.076-58.298-79.88M90.828 36.411c0-2.647-2.061-4.143-4.582-3.337-33.814 10.803-58.299 42.481-58.299 79.879s24.485 69.075 58.299 79.879c2.52.805 4.582-.691 4.582-3.338v-6.508c0-1.775-1.338-3.795-3.004-4.405-26.756-9.801-45.903-35.519-45.903-65.628s19.147-55.828 45.903-65.628c1.666-.611 3.004-2.63 3.004-4.405z" clip-rule="evenodd"/><path fill="#fff" d="m140.376 134.769-6.395-2.857a2.873 2.873 0 0 0-3.75 1.343c-3.018 6.125-8.034 10.029-14.661 10.029-5.999 0-10.811-2.938-14.499-8.875-1.442-2.297-2.587-4.861-3.46-7.67h17.173a2.89 2.89 0 0 0 2.575-1.585l4.097-5.53c.969-1.919-.425-4.185-2.574-4.185H95.68a65 65 0 0 1-.108-3.653 57 57 0 0 1 .086-3.649h19.126a2.89 2.89 0 0 0 2.575-1.584l4.097-5.53c.969-1.919-.425-4.185-2.574-4.185H97.591c3.114-10.153 9.615-16.805 17.979-16.674 6.374 0 11.322 3.49 14.496 9.204.711 1.281 2.312 1.772 3.652 1.18l6.428-2.837c1.538-.68 2.192-2.54 1.378-4.01-5.934-10.716-14.585-16.099-25.954-16.099-10.374 0-18.686 4.125-24.998 12.312-3.69 4.822-6.257 10.48-7.781 16.924h-9.338a2.88 2.88 0 0 0-2.575 1.584l-4.097 5.53c-.97 1.919.425 4.185 2.575 4.185h11.892a76 76 0 0 0-.113 3.649 66 66 0 0 0 .067 3.653h-7.749a2.89 2.89 0 0 0-2.575 1.584l-4.097 5.53c-.97 1.919.425 4.186 2.575 4.186h13.407c4.24 17.526 16.448 29.478 32.807 29.231 11.615 0 20.369-5.774 26.213-17.271.744-1.464.092-3.26-1.407-3.93"/></g><defs><clipPath id="a"><path fill="#fff" d="M0 0h223.576v223.576H0z"/></clipPath></defs></svg>
